gtk-icons/Papirus-GTK/16x16/actions/im-yahoo.svg

<?xml version="1.0" encoding="UTF-8" standalone="no"?>
<!-- Created with Inkscape (http://www.inkscape.org/) -->

<svg
   xmlns:osb="http://www.openswatchbook.org/uri/2009/osb"
   xmlns:dc="http://purl.org/dc/elements/1.1/"
   xmlns:cc="http://creativecommons.org/ns#"
   xmlns:rdf="http://www.w3.org/1999/02/22-rdf-syntax-ns#"
   xmlns:svg="http://www.w3.org/2000/svg"
   xmlns="http://www.w3.org/2000/svg"
   xmlns:sodipodi="http://sodipodi.sourceforge.net/DTD/sodipodi-0.dtd"
   xmlns:inkscape="http://www.inkscape.org/namespaces/inkscape"
   sodipodi:docname="im-yahoo.svg"
   inkscape:export-filename="/home/sam/source-symbolic.png"
   inkscape:export-xdpi="270"
   inkscape:export-ydpi="270"
   height="16"
   id="svg7384"
   style="enable-background:new"
   version="1.1"
   inkscape:version="0.91 r"
   width="16">
  <sodipodi:namedview
     inkscape:bbox-nodes="true"
     inkscape:bbox-paths="false"
     bordercolor="#666666"
     borderlayer="false"
     borderopacity="1"
     inkscape:current-layer="layer12"
     inkscape:cx="2.626365"
     inkscape:cy="7.4378284"
     gridtolerance="10"
     inkscape:guide-bbox="true"
     guidetolerance="10"
     id="namedview88"
     inkscape:object-nodes="true"
     inkscape:object-paths="true"
     objecttolerance="10"
     pagecolor="#f7f7f7"
     inkscape:pageopacity="0"
     inkscape:pageshadow="2"
     showborder="true"
     showgrid="false"
     showguides="true"
     inkscape:showpageshadow="false"
     inkscape:snap-bbox="true"
     inkscape:snap-bbox-edge-midpoints="false"
     inkscape:snap-bbox-midpoints="true"
     inkscape:snap-center="false"
     inkscape:snap-global="true"
     inkscape:snap-grids="true"
     inkscape:snap-intersection-paths="true"
     inkscape:snap-midpoints="true"
     inkscape:snap-nodes="true"
     inkscape:snap-object-midpoints="true"
     inkscape:snap-others="true"
     inkscape:snap-page="false"
     inkscape:snap-smooth-nodes="true"
     inkscape:snap-to-guides="true"
     inkscape:window-height="842"
     inkscape:window-maximized="1"
     inkscape:window-width="1600"
     inkscape:window-x="-4"
     inkscape:window-y="32"
     inkscape:zoom="1">
    <inkscape:grid
       color="#000000"
       dotted="false"
       empcolor="#0800ff"
       empopacity="0.4627451"
       empspacing="4"
       enabled="true"
       id="grid4866"
       opacity="0.16470588"
       originx="-244.0004"
       originy="-316.00672"
       snapvisiblegridlinesonly="true"
       spacingx="0.25px"
       spacingy="0.25px"
       type="xygrid"
       visible="true" />
  </sodipodi:namedview>
  <metadata
     id="metadata90">
    <rdf:RDF>
      <cc:Work
         rdf:about="">
        <dc:format>image/svg+xml</dc:format>
        <dc:type
           rdf:resource="http://purl.org/dc/dcmitype/StillImage" />
        <dc:title>Paper Symbolic Icon Theme</dc:title>
      </cc:Work>
    </rdf:RDF>
  </metadata>
  <title
     id="title8473">Paper Symbolic Icon Theme</title>
  <defs
     id="defs7386">
    <linearGradient
       id="linearGradient5606"
       osb:paint="solid">
      <stop
         id="stop5608"
         offset="0"
         style="stop-color:#000000;stop-opacity:1;" />
    </linearGradient>
  </defs>
  <g
     inkscape:groupmode="layer"
     id="layer12"
     inkscape:label="actions"
     style="display:inline"
     transform="translate(-485.0006,99.00672)">
    <path
       style="opacity:0.5;fill:#000000;fill-opacity:1;stroke:none"
       d="M 8 1.0039062 C 4.13397 1.0039062 1 4.1380262 1 8.0039062 C 1 11.869936 4.13397 15.003906 8 15.003906 C 11.86603 15.003906 15 11.869936 15 8.0039062 C 15 4.1380262 11.86603 1.0039062 8 1.0039062 z M 6.6972656 4.0058594 C 7.2053981 4.0135819 7.6501419 4.0282537 7.7480469 4.0429688 L 7.6972656 4.4882812 C 7.4886956 4.5541513 6.4854594 4.5785086 6.2246094 4.6660156 C 6.9027394 5.9370446 7.9744656 7.5734204 8.3222656 8.2089844 C 8.5136156 7.8584274 10.193994 6.4004874 10.246094 5.8964844 C 9.9852037 5.8305244 9.1215719 5.6738281 8.9824219 5.6738281 L 8.9003906 5.0996094 C 9.1371306 5.0528794 10.38115 5.0996094 11 5.0996094 C 11.53406 5.0996094 12.67573 5.0993025 13 5.1328125 L 12.703125 5.6738281 C 12.529105 5.6954681 11.80599 5.8990697 11.5625 5.9648438 C 11.30179 6.0523438 8.9181987 8.3718363 8.7617188 8.9414062 C 8.7270188 9.1385262 8.7109375 9.4435116 8.7109375 9.7285156 L 8.6933594 10.1875 C 8.6933594 10.515957 8.7661112 11.045293 8.8007812 11.330078 C 8.9573813 11.374088 10.090248 11.336789 10.298828 11.380859 L 10.273438 11.96875 C 10.069637 11.95005 8.6288706 11.955078 7.8066406 11.955078 C 7.3892506 11.955078 6.0489587 12.013677 5.6367188 11.998047 L 5.7148438 11.4375 C 5.9408937 11.41535 6.8762812 11.488653 7.0820312 11.214844 C 7.1842312 11.079021 7.1523438 10.933332 7.1523438 10.144531 L 7.1523438 9.7714844 C 7.1523438 9.5961484 7.1520875 9.2678285 7.1171875 8.9609375 C 7.0302875 8.6321515 4.9315281 5.3304805 4.3925781 4.8046875 C 4.2359681 4.7390475 3.2550988 4.6147161 3.0117188 4.5488281 L 3 4.0449219 C 3.12142 3.9681319 4.2112813 4.0630319 5.2695312 4.0136719 C 5.6172763 3.9974969 6.1891331 3.9981369 6.6972656 4.0058594 z "
       transform="translate(485.0006,-99.00672)"
       id="path4143" />
  </g>
</svg>

<?xml version="1.0" encoding="UTF-8" standalone="no"?>
<!-- Created with Inkscape (http://www.inkscape.org/) -->
<svg id="svg7384" xmlns:rdf="http://www.w3.org/1999/02/22-rdf-syntax-ns#" style="enable-background:new" xmlns="http://www.w3.org/2000/svg" xmlns:osb="http://www.openswatchbook.org/uri/2009/osb" height="16" width="16" version="1.1" xmlns:cc="http://creativecommons.org/ns#" xmlns:dc="http://purl.org/dc/elements/1.1/">
 <metadata id="metadata90">
  <rdf:RDF>
   <cc:Work rdf:about="">
    <dc:format>image/svg+xml</dc:format>
    <dc:type rdf:resource="http://purl.org/dc/dcmitype/StillImage"/>
    <dc:title>Paper Symbolic Icon Theme</dc:title>
   </cc:Work>
  </rdf:RDF>
 </metadata>
 <title id="title8473">Paper Symbolic Icon Theme</title>
 <g id="layer12" transform="translate(-485 99.007)">
  <path id="path4143" opacity=".5" d="m8 1.0039c-3.866 0-7 3.1341-7 7 0 3.8661 3.134 7.0001 7 7.0001s7-3.134 7-7.0001c0-3.8659-3.134-7-7-7zm-1.3027 3.002c0.5081 0.0077 0.9528 0.0224 1.0507 0.0371l-0.0507 0.4453c-0.2086 0.0659-1.2118 0.0902-1.4727 0.1777 0.6781 1.271 1.7499 2.9074 2.0977 3.543 0.1913-0.3506 1.8717-1.8085 1.9237-2.3125-0.2608-0.066-1.1244-0.2227-1.2636-0.2227l-0.082-0.5742c0.2367-0.0467 1.4806 0 2.0996 0 0.534 0 1.676-0.0003 2 0.0332l-0.297 0.541c-0.174 0.0217-0.897 0.2253-1.141 0.291-0.26 0.0875-2.6438 2.407-2.8003 2.9766-0.0347 0.1971-0.0508 0.5021-0.0508 0.7871l-0.0175 0.4595c0 0.328 0.0727 0.857 0.1074 1.142 0.1566 0.044 1.2892 0.007 1.4982 0.051l-0.026 0.588c-0.203-0.019-1.6441-0.014-2.4664-0.014-0.4173 0-1.7576 0.059-2.1699 0.043l0.0781-0.56c0.2261-0.023 1.1615 0.051 1.3672-0.223 0.1022-0.136 0.0703-0.282 0.0703-1.07v-0.3735c0-0.1754-0.0002-0.5037-0.0351-0.8106-0.0869-0.3287-2.1857-3.6304-2.7246-4.1562-0.1566-0.0657-1.1375-0.19-1.3809-0.2559l-0.0117-0.5039c0.1214-0.0768 1.2113 0.0181 2.2695-0.0312 0.3478-0.0162 0.9196-0.0156 1.4278-0.0078z" transform="translate(485 -99.007)"/>
 </g>
</svg>
